Origami/22x22/apps/blobby.svg

<svg width="22" height="22" version="1" xmlns="http://www.w3.org/2000/svg">
 <path d="m1.00585 11.25c-0.00205 0.0835-0.00585 0.166-0.00585 0.25 0 5.54 4.46 10 10 10s10-4.46 10-10c0-0.08394-0.0038-0.16657-0.0059-0.25-0.132 5.423-4.538 9.75-9.994 9.75s-9.862-4.327-9.994-9.75z" style="opacity:.2"/>
 <circle cx="11" cy="11" r="10" style="fill:#cccccc"/>
 <path d="m9.732422 1.5820312c-0.302832 0.038002-0.600906 0.091982-0.8945314 0.15625-0.427908 2.9538423 0.073513 6.1216884 1.6699214 8.9042968-0.82 1.306732-1.8051245 2.531259-2.9531245 3.429688-2.3736795-3.073514-3.2144761-6.9075436-2.6816406-10.47461-0.3360855 0.2606119-0.6611779 0.5352236-0.9609375 0.8359376-0.2958161 3.5445219 0.695015 7.1432502 2.90625 10.210937-1.2472977 0.876952-2.6306248 1.543122-4.0820313 1.96875a10 10 0 0 0 0.5214844 0.708985c3.2266388-1.050397 6.1245005-3.177557 7.9882815-6.271485 1.558021 1e-6 3.115744 0.326366 4.509765 0.816407-1.757583 4.110111-5.227525 7.004151-9.2753902 8.041015a10 10 0 0 0 1.2441406 0.527344c3.8369526-1.332712 7.1078216-4.248084 8.7695316-8.160156 1.405866 0.663312 2.669871 1.532626 3.748047 2.535156a10 10 0 0 0 0.335937 -0.955078c-2.498726-2.18955-5.724372-3.54296-9.332031-3.621094-0.820001-1.3884265-1.312573-2.8599571-1.558594-4.3300781 0.543247-0.061255 1.083389-0.0905209 1.617188-0.0917969 3.589275-0.00858 6.921965 1.312751 9.46875 3.570312-0.106975-0.499685-0.257351-0.9826484-0.435547-1.4511714-2.985745-2.2740005-6.780013-3.394637-10.730469-2.84375-0.07648-1.1428765-0.07437-2.3534227 0.125-3.5058594z" style="opacity:.2"/>
 <path d="m9.732422 1.0820312c-0.3028315 0.0380021-0.5999295 0.0919817-0.893555 0.15625-0.427908 2.9538423 0.072537 6.1216883 1.668946 8.9042968-0.8200005 1.306732-1.804149 2.531259-2.952149 3.429688-2.3736795-3.073514-3.216429-6.906567-2.6835935-10.473633-0.3360855 0.2606119-0.6602015 0.5352237-0.9599611 0.8359375-0.2958161 3.5445222 0.6950151 7.1422737 2.9062501 10.209961-1.326323 0.932514-2.8027525 1.639138-4.3554689 2.057617 0.1525059 0.250463 0.3149839 0.493283 0.4882813 0.728516 3.3506791-1.01214 6.3716901-3.187263 8.2949221-6.379883 1.558021 1e-6 3.115744 0.326366 4.509766 0.816407-1.850171 4.326626-5.595878 7.311289-9.9179695 8.194335 0.3821605 0.230237 0.776842 0.441796 1.19043 0.620117 4.1392055-1.204929 7.7034045-4.256114 9.4658195-8.405273 1.466285 0.691819 2.783291 1.60334 3.890625 2.661133 0.117795-0.32317 0.219172-0.653224 0.303711-0.991211-2.513083-2.244757-5.783462-3.6326695-9.442382-3.711914-0.820001-1.3884265-1.311596-2.8589805-1.5576175-4.3291015 0.5432475-0.061255 1.0824125-0.0914975 1.6162115-0.0927735 3.589275-0.00858 6.921965 1.312751 9.468749 3.5703125-0.106974-0.4996855-0.257351-0.9816725-0.435547-1.4501955-2.985745-2.2740005-6.780988-3.394637-10.731444-2.84375-0.076478-1.1428765-0.073398-2.354399 0.1259765-3.5068358z" style="fill:#4f4f4f"/>
 <path d="m11 1c-5.54 0-10 4.46-10 10 0 0.084 4e-3 0.1665 0.00585 0.25 0.13235-5.423 4.53815-9.75 9.994-9.75s9.862 4.32695 9.994 9.75c2e-3 -0.08343 0.0059-0.166065 0.0059-0.25 0-5.54-4.46-10-10-10z" style="fill:#ffffff;opacity:.2"/>
</svg>

<svg xmlns="http://www.w3.org/2000/svg" width="22" height="22" version="1">
 <path style="opacity:0.2" d="M 1.00585,11.25 C 1.0038,11.3335 1,11.416 1,11.5 c 0,5.54 4.46,10 10,10 5.54,0 10,-4.46 10,-10 0,-0.08394 -0.0038,-0.16657 -0.0059,-0.25 -0.132,5.423 -4.538,9.75 -9.994,9.75 -5.456,0 -9.862,-4.327 -9.994,-9.75 z"/>
 <circle style="fill:#cccccc" cx="11" cy="11" r="10"/>
 <path style="opacity:0.2" d="m 9.732422,1.5820312 c -0.302832,0.038002 -0.600906,0.091982 -0.8945314,0.15625 -0.427908,2.9538423 0.073513,6.1216884 1.6699214,8.9042968 -0.82,1.306732 -1.8051245,2.531259 -2.9531245,3.429688 C 5.181008,10.998752 4.3402114,7.1647224 4.8730469,3.5976562 4.5369614,3.8582681 4.211869,4.1328798 3.9121094,4.4335938 c -0.2958161,3.5445219 0.695015,7.1432502 2.90625,10.2109372 -1.2472977,0.876952 -2.6306248,1.543122 -4.0820313,1.96875 a 10,10 0 0 0 0.5214844,0.708985 c 3.2266388,-1.050397 6.1245005,-3.177557 7.9882815,-6.271485 1.558021,10e-7 3.115744,0.326366 4.509765,0.816407 -1.757583,4.110111 -5.227525,7.004151 -9.2753902,8.041015 a 10,10 0 0 0 1.2441406,0.527344 c 3.8369526,-1.332712 7.1078216,-4.248084 8.7695316,-8.160156 1.405866,0.663312 2.669871,1.532626 3.748047,2.535156 a 10,10 0 0 0 0.335937,-0.955078 C 18.079399,11.665919 14.853753,10.312509 11.246094,10.234375 10.426093,8.8459485 9.933521,7.3744179 9.6875,5.9042969 10.230747,5.8430419 10.770889,5.813776 11.304688,5.8125 14.893963,5.80392 18.226653,7.125251 20.773438,9.382812 20.666463,8.883127 20.516087,8.4001636 20.337891,7.9316406 17.352146,5.6576401 13.557878,4.5370036 9.607422,5.0878906 9.530942,3.9450141 9.533052,2.7344679 9.732422,1.5820312 Z"/>
 <path style="fill:#4f4f4f" d="M 9.732422,1.0820312 C 9.4295905,1.1200333 9.1324925,1.1740129 8.838867,1.2382812 8.410959,4.1921235 8.911404,7.3599695 10.507813,10.142578 9.6878125,11.44931 8.703664,12.673837 7.555664,13.572266 5.1819845,10.498752 4.339235,6.665699 4.8720705,3.0986328 4.535985,3.3592447 4.211869,3.6338565 3.9121094,3.9345703 3.6162933,7.4790925 4.6071245,11.076844 6.8183595,14.144531 c -1.326323,0.932514 -2.8027525,1.639138 -4.3554689,2.057617 0.1525059,0.250463 0.3149839,0.493283 0.4882813,0.728516 3.3506791,-1.01214 6.3716901,-3.187263 8.2949221,-6.379883 1.558021,10e-7 3.115744,0.326366 4.509766,0.816407 -1.850171,4.326626 -5.595878,7.311289 -9.9179695,8.194335 0.3821605,0.230237 0.776842,0.441796 1.19043,0.620117 4.1392055,-1.204929 7.7034045,-4.256114 9.4658195,-8.405273 1.466285,0.691819 2.783291,1.60334 3.890625,2.661133 0.117795,-0.32317 0.219172,-0.653224 0.303711,-0.991211 C 18.175393,11.201532 14.905014,9.8136195 11.246094,9.734375 10.426093,8.3459485 9.934498,6.8753945 9.6884765,5.4052735 10.231724,5.3440185 10.770889,5.313776 11.304688,5.3125 14.893963,5.30392 18.226653,6.625251 20.773437,8.8828125 20.666463,8.383127 20.516086,7.90114 20.33789,7.432617 17.352145,5.1586165 13.556902,4.03798 9.6064455,4.588867 9.5299675,3.4459905 9.5330475,2.234468 9.732422,1.0820312 Z"/>
 <path style="opacity:0.2;fill:#ffffff" d="M 11,1 C 5.46,1 1,5.46 1,11 1,11.084 1.004,11.1665 1.00585,11.25 1.1382,5.827 5.544,1.5 10.99985,1.5 c 5.45585,0 9.862,4.32695 9.994,9.75 0.002,-0.08343 0.0059,-0.166065 0.0059,-0.25 0,-5.54 -4.46,-10 -10,-10 z"/>
</svg>
